X:1
T:O donzella tutta bella
T:Giovanni Nauwach
T:Source : Libro primo di Arie passeggiate a una voce + BC ---Brescia---1623. Editor : André Vierendeels (29/10/16).
T:Notes : Original clefs : C1, F4 Figures in BC are notated in original print Dotted brackets indicate black notes Original note values have been halved
T:Aria
T:O donzella tutta bella
T:©
T:©
C:Giovanni Nauwach
Z:©
%%score 1 2
L:1/8
Q:1/4=99
M:3/4
K:F
V:1 treble nm="Soprano" snm="S"
V:2 bass nm="MusicXML Part"
V:1
 dcBc A2 | B4 G2 | ABcd G2 | A4 A2 | Bcde fd | _e4 G2 | AB cB AB | G4 G2 :: ABcd _ec | d4 d2 | %10
w: O _ _ _ don-|zel- la,|tut- * * * ta|bel- la,|che _ _ _ di _|ro- se,|ac- * cen- * d'il _|cie- lo,|e _ _ _ dan- *|zan- do,|
w: Pel- * * * le-|gri- ne|del _ _ _ tuo|cri- me,|son _ _ _ le _|do- te'al|mon- * * * do _|sol- le,|d'am- * * * bra'e _|d'o- ro,|
w: Spa- * * * ci-|o- sa,|a- * * * mo-|ro- sa,|hai _ _ _ la _|fron- te|tut- * * * ta _|ro- se,|ro- * * * s'in- *|tat- te,|
w: La _ _ _ tua|boc- ca,|dol- * * * ce|fioc- ca,|il _ _ _ li- *|quor de|fa- * * * v'i- *|be- i,|ne- * * * si- *|ca- ra,|
w: Il _ _ _ tuo|pet- to,|ri _ _ _ ton-|det- to,|co _ _ _ suoi _|dar- di'A-|mor _ _ _ di _|pin- se,|e _ _ _ per _|gio- co,|
 _edcB cd | B4 c2 | d3 c B2 | A4 B2 | c2 A4 | !fermata!G6 :| %16
w: e _ _ _ can- *|tan- do,|tol- ga l'a-|ria'il fre-|sco ve-|lo.|
w: el _ _ _ ter- *|s'o- ro,|che fu- ra-|sti'al chia-|ro so-|le.|
w: o _ _ _ ve'il _|lat- te,|la na- tu-|ra'u- nen-|do po-|se.|
w: ne _ _ _ si _|ra- ra,|el' Am- bro-|sia de|gli De-|i.|
w: di _ _ _ suo _|fo- co,|que- gli'a- vo-|rii vi-|ri tin-|se.|
V:2
"^BC" G,4 ^F,2 | G,6 | F,4 _E,2 |"^6" D,4 C,2 | B,,4 B,,2 |"^b" C,4 _E,2 | C,2 D,4 | G,,4 G,,2 :: %8
 F,4 _E,2 | B,,4 B,,2 |"^b" C,4 F,2 | B,4 A,2 | G,4 G,2 | F,4 _E,2 |"^#" C,2 D,4 | !fermata!G,,6 :| %16

